X:1
T:Lanier, irr.
T:Lanier, irr.
T:Peter Christian Lutkin, 1905
T:Public Domain Courtesy of the Cyber Hymnal™
C:Peter Christian Lutkin, 1905
Z:Public Domain
Z:Courtesy of the Cyber Hymnal™
%%score ( 1 2 ) ( 3 4 )
L:1/8
Q:1/4=95
M:6/8
K:G
V:1 treble 
V:2 treble 
V:3 bass 
V:4 bass 
V:1
 [GB]>[GB][GB] ([GB][FA])[EG] | [EA]2 [CE] [CE]2 [CE] | [CG]2 [CF] [B,E]2 [B,^D] | %3
 [B,E]4 [GB]>[GB][GB] ([GB][FA])[EG] | [EA]2 [CE] [CE]2 [^CG] | [DG]2 [DG] F[DF] x | %6
 [DG]3- [DG]2 [B,D]/[B,D]/ | [B,^D][B,D][B,D] [B,D][^CE][DF] | [FA]2 [EG] [EG]2 [^CG] | %9
 [DF][DF][DF] ([DF][EG])[DF] [Ac]2 [GB] [GB]2 [DA] | [E^G]2 [EG] ([EG][FA])[GB] | %11
 [Bd]2 [Ac] [Ac]2 [EA] | [EG]EF [^DG]2 [DF] | E6 |] %14
V:2
 x6 | x6 | x6 | x10 | x6 | x3 (DE) x | x6 | x6 | x6 | x12 | x6 | x6 | x2 E x3 | E6 |] %14
V:3
 [E,B,]>[E,B,][E,B,] [E,B,]2 [E,B,] | [A,,C]2 [A,,A,] [A,,A,]2 [A,,A,] | %2
 [A,,E,]2 [A,,F,] [B,,G,]2 [B,,F,] | [E,G,]4 [E,B,]>[E,B,][E,B,] [E,B,]2 [E,B,] | %4
 [A,,C]2 [A,,A,] [A,,A,]2 [A,,A,] | [D,B,]2 [D,B,] (A,G,)[D,A,] | [G,B,]3- [G,B,]2 G,/G,/ | %7
 [B,,F,][B,,F,][B,,F,] [B,,B,][B,,B,][B,,B,] | [E,B,]2 [E,B,] [E,B,]2 [E,G,] | %9
 [D,A,][D,A,][D,A,] [D,D]2 [D,D] [G,D]2 [G,D] [G,D]2 [=F,A,] | [E,B,]2 [E,B,] [E,E]2 [E,E] | %11
 [A,E]2 [A,E] [A,E]2 [A,,C] | [B,,B,][B,,G,][B,,A,] [B,,B,]2 [B,,A,] | [E,G,]6 |] %14
V:4
 x6 | x6 | x6 | x10 | x6 | x3 D,2 x | x6 | x6 | x6 | x12 | x6 | x6 | x6 | x6 |] %14

